**kern	**kern	**dynam
*part1	*part1	*part1
*staff2	*staff1	*
*I"Piano	*	*
*clefF4	*clefG2	*
*k[b-e-a-]	*k[b-e-a-]	*
=1	=1	=1
*^	*^	*
*	*^	*	*	*
4g]	4.A- 4.c	8rCC	4gg]	4.a- 4.cc	.
.	.	4D~\	.	.	.
8f)	.	.	8ff)	.	.
*v	*v	*v	*	*	*
*	*v	*v	*
=	=	=
(8G 8B-	(8f 8b- 8dd	.
4F) 4c 4d	4a-) 4cc	.
=	=	=
*^	*	*
4.F#X	4C	4.en 4.an	.
.	8C	.	.
=	=	=	=
4.c	(4Fn	(4a-X	>
.	8E-)	8g)	]
=	=	=	=
4.c	(4F	(4a-	>
.	8E-)	[8g~	]
*v	*v	*	*
=	=	=
*	*^	*
[4.FF [4.C	4.g_)	4.An	.
=	=	=	=
4.FF] 4.C]	4g]	4.A-X 4.d 4.f	.
.	(8cc~	.	.
*	*v	*v	*
=	=	=
*-	*-	*-
!!!system-decoration: {(s1,s2)}
